X: 9727
T: Deerness Two-Step
R: jig
M: 6/8
K: Gmajor
DEF|:G2G GBG|E2D DGB|d2d e/f/gB|d3 def|
g2g ged|e2d BAG|A2G BAG|E3 DEF|
G2G GBG|E2D DGB|d2d e/f/gB|d3 def|
g2g ged|e2d BAG|A2D DEF|1 G3 DEF:|2 G3 G2B ]|
|:B2e e2f|g2a gfe|d2d deB|d3 def|
g2a gfe|d2e dcB|A2G BAG|E3 DEF|
G2G GBG|E2D DGB|d2d e/f/gB|d3 def|
[1 g2g ged|e2d BAG|A2D DEF|G3 G2B:|
[2 gag fgf|efe dcB|ABc def|g3||

